assets/icons/fb.svg

<?xml version="1.0" encoding="UTF-8"?>
<svg width="24px" height="24px" viewBox="0 0 24 24" version="1.1" xmlns="http://www.w3.org/2000/svg" xmlns:xlink="http://www.w3.org/1999/xlink">
    <title>VW/Icons/fb</title>
    <defs>
        <path d="M11.9999999,-5.00000006e-08 C5.39999997,-5.00000006e-08 -5.00000006e-08,5.39999997 -5.00000006e-08,11.9999999 C-5.00000006e-08,18.6 5.39999997,23.9999999 11.9999999,23.9999999 C18.6,23.9999999 23.9999999,18.6 23.9999999,11.9999999 C23.9999999,5.39999997 18.6,-5.00000006e-08 11.9999999,-5.00000006e-08 Z M16.425,6.74999998 C15.6,6.74999998 14.775,6.74999998 14.4,6.74999998 C14.025,6.74999998 13.575,7.19999998 13.575,7.49999998 C13.575,7.79999998 13.575,9.59999996 13.575,9.59999996 C13.575,9.59999996 16.125,9.59999996 16.425,9.59999996 C16.275,11.175 16.05,12.675 16.05,12.675 L13.5,12.675 L13.5,21 L9.74999999,21 L9.74999999,12.675 L7.94999998,12.675 L7.94999998,9.59999996 L9.74999999,9.59999996 C9.74999999,9.59999996 9.74999999,7.57499998 9.74999999,7.12499998 C9.74999999,6.67499998 9.67499999,3.59999996 13.575,3.59999996 C14.1,3.59999996 15.3,3.59999996 16.35,3.59999996 C16.425,4.94999997 16.425,6.37499998 16.425,6.74999998 Z" id="path-1"></path>
    </defs>
    <g id="VW/Icons/fb" stroke="none" stroke-width="1" fill="none" fill-rule="evenodd">
        <mask id="mask-2" fill="white">
            <use xlink:href="#path-1"></use>
        </mask>
        <g fill-rule="nonzero"></g>
        <g id="Group" mask="url(#mask-2)" fill="#000000">
            <g id="🎨-color">
                <rect id="Swatch" x="0" y="0" width="24" height="24"></rect>
            </g>
        </g>
    </g>
</svg>

<svg
    xmlns="http://www.w3.org/2000/svg"    
    x="0px"
    y="0px"
    viewBox="0 0 24 24"
    aria-labelledby="chevron down"
    role="presentation"
  >
    <title  lang="en">chevron down</title>

    <g fill="currentColor">
	<path id="path-1_00000066478858078411342320000005672150191378894728_" d="M12,0C5.4,0,0,5.4,0,12s5.4,12,12,12s12-5.4,12-12
		S18.6,0,12,0z M16.4,6.8c-0.8,0-1.6,0-2,0s-0.8,0.4-0.8,0.8s0,2.1,0,2.1s2.6,0,2.8,0c-0.1,1.6-0.4,3.1-0.4,3.1h-2.5V21H9.8v-8.3
		H7.9V9.6h1.8c0,0,0-2,0-2.5s-0.1-3.5,3.8-3.5c0.5,0,1.7,0,2.8,0C16.4,4.9,16.4,6.4,16.4,6.8z"/>
</g>
</svg>
